X:1
T:Christ Has Arisen
T:Christ Has Arisen
T:Samuel William Beazley, 1916
T:Priscilla Jane Owens (1829-1907)
T:Public Domain Courtesy of the Cyber Hymnal™
T:Public Domain Courtesy of the Cyber Hymnal™
C:Samuel William Beazley, 1916
Z:Public Domain
Z:Courtesy of the Cyber Hymnal™
%%score ( 1 2 ) ( 3 4 )
L:1/8
Q:1/4=112
M:12/8
K:Db
V:1 treble 
V:2 treble 
V:3 bass 
V:4 bass 
V:1
 (A[=GB])[_Gc] | [Fd]2 [Fd] [Fc]2 [Gc] [FB]2 [FB] (AB)[FA] | [CG]3 [Gc]3 [Gc]3- [Gc]2 [Ac] | %3
w: 1.~East- * er|dawns in glad- ness on a world * from|death re- deemed, * The|
w: 2.~Lo! * His|char- iots glor- ious now a- cross * the|sky have rolled, * Look!|
w: 3.~Mourn- * ers,|cease your weep- ing now and rest * up-|on His Word, * For|
 [Bd]2 [Ac] [Ac]2 [GB] [GB]2 [FA] [EG][FA][EG] | %4
w: ra- diant sun of glo- ry o- ver the|
w: look, the mar- shaled an- gels flood all the|
w: all in Je- sus sleep- ing, shall come with|
 [DF]3 [=EB]3 [FA]3 (A[=GB])[_Gc] [Fd]2 [Fd] [Fc]2 [Fc] [FB]2 [FB] (AB)[FA] | %5
w: night has streamed, Death * is tram- pled down- ward now where death * tri-|
w: dark with gold; Hark * the joy bells chim- ing out where late * the|
w: Him re- stored; With * Him all your trea- sure keep- ing, la- * bor|
 [CG]3 [Gc]3 [Gc]3 A3 | [Ad]3 [Gd]3 [Fd]3 [Gc]2 [Gc] | [Fd]6 [Fd]3- [Fd]2 ||"^Refrain" A | %9
w: umph- ant seemed, For|Christ our Lord has a-|ris- en. *||
w: fu- neral tolled, For|Christ our Lord has a-|ris- en. *|Re-|
w: for our Lord, For|Christ our Lord has a-|ris- en. *||
 (z2 [Gc]2) A (z2 [Fd]2) [Fd] x2 | [Ge]2 [Gd] (cB)[Gc] [Fd]3- [Fd]2 d | %11
w: ||
w: * joice, * re-|* joice, * * the Lord * is|
w: ||
 (z2 [DB]2) d (z2 [DA]2) [DF] x2 | %12
w: |
w: * ris’n * in-|
w: |
 [CE]2 [CA] [EB]2 [EB] [Ec]3- [Ec]2 [GA] [Fd]2 [Fd] [Fc]2 [Fc] [FB]2 [FB] (AB)[FA] | %13
w: |
w: * deed! Go forth, go * forth, and bear the news with speed. Go * tell|
w: |
 [CG]3 [Gc]3 [Gc]3 A3 | [Ad]3 [Gd]3 [Fd]3 [Gc]2 [Gc] | [Fd]6 [Fd]3- [Fd]2 |] %16
w: |||
w: the ran- somed cap-|tives now from death set|free, That *|
w: |||
V:2
 A x2 | x9 F2 x | x12 | x12 | x9 A x10 F2 x2 | x9 A3 | x12 | x11 || x | c3- G x d3- F x3 | %10
 x3 G2 x7 | B3- D x A3- D x3 | x21 F2 x | x9 A3 | x12 | x11 |] %16
V:3
 A,2 A, | [D,A,]2 [D,A,] [D,A,]2 [D,A,] [D,D]2 [D,D] [D,D]2 [D,A,] | %2
 [E,A,]3 [E,A,]3 [A,E]3- [A,E]2 [A,E] | [A,E]2 [A,E] [A,E]2 [A,C] [A,C]2 A, A,A,[A,,A,] | %4
 [D,A,]3 (=G,2 B,) [B,,D]3 A,2 A, [D,A,]2 [D,A,] [D,A,]2 [D,A,] [D,D]2 [D,D] [D,D]2 [D,A,] | %5
 [E,A,]3 [E,A,]3 [A,E]3 [G,C]3 | [F,D]3 [G,B,]3 A,3 [A,,A,]2 [A,,A,] | [D,A,]6 [D,A,]3- [D,A,]2 || %8
 z | z2 [E,A,] [E,A,]2 z3 [D,A,] [D,A,]2 [D,A,] | %10
 [A,,A,]2 [A,,A,] [A,,A,]2 [A,,A,] [D,A,]3- [D,A,]2 z | z2 G, G,2 z3 [F,A,] [F,A,]2 [D,A,] | %12
 [E,A,]2 [E,A,] [E,=G,]2 [E,G,] A,3- A,2 A, [D,A,]2 [D,A,] [D,A,]2 [D,A,] [D,D]2 [D,D] [D,D]2 [D,A,] | %13
 [E,A,]3 [E,A,]3 [A,E]3 [G,C]3 | [F,D]3 [G,B,]3 A,3 [A,,A,]2 [A,,A,] | [D,A,]6 [D,A,]3- [D,A,]2 |] %16
V:4
 A,2 A, | x12 | x12 | x8 A, A,A, x | x3 D,3 x A,2 A, x14 | x12 | x6 A,3 x3 | x11 || x | x12 | x12 | %11
 x2 G, G,2 x7 | x6 A,3- A,2 A, x12 | x12 | x6 A,3 x3 | x11 |] %16

